svgs/solid/dumpster.svg

<svg xmlns="http://www.w3.org/2000/svg" viewBox="0 0 576 512"><!-- Font Awesome Pro 6.0.0-alpha2 by @fontawesome - https://fontawesome.com License - https://fontawesome.com/license (Commercial License) --><path d="M560 160C570.375 160 577.999 150.25 575.5 140.125L551.5 44.125C549.75 37 543.25 32 536 32H437.125L462.75 160H560ZM272 32H171.5L145.875 160H272V32ZM404.5 32H304V160H430.125L404.5 32ZM16 160H113.25L138.875 32H40C32.75 32 26.25 37 24.5 44.125L0.5 140.125C-2.001 150.25 5.625 160 16 160ZM560 224H540L544 192H32L36 224H16C7.25 224 0 231.25 0 240V272C0 280.75 7.25 288 16 288H44L64 448V464C64 472.75 71.25 480 80 480H112C120.75 480 128 472.75 128 464V448H448V464C448 472.75 455.25 480 464 480H496C504.75 480 512 472.75 512 464V448L532 288H560C568.75 288 576 280.75 576 272V240C576 231.25 568.75 224 560 224Z"/></svg>

<svg xmlns="http://www.w3.org/2000/svg" viewBox="0 0 576 512"><!-- Font Awesome Pro 5.15.1 by @fontawesome - https://fontawesome.com License - https://fontawesome.com/license (Commercial License) --><path d="M560 160c10.4 0 18-9.8 15.5-19.9l-24-96C549.7 37 543.3 32 536 32h-98.9l25.6 128H560zM272 32H171.5l-25.6 128H272V32zm132.5 0H304v128h126.1L404.5 32zM16 160h97.3l25.6-128H40c-7.3 0-13.7 5-15.5 12.1l-24 96C-2 150.2 5.6 160 16 160zm544 64h-20l4-32H32l4 32H16c-8.8 0-16 7.2-16 16v32c0 8.8 7.2 16 16 16h28l20 160v16c0 8.8 7.2 16 16 16h32c8.8 0 16-7.2 16-16v-16h320v16c0 8.8 7.2 16 16 16h32c8.8 0 16-7.2 16-16v-16l20-160h28c8.8 0 16-7.2 16-16v-32c0-8.8-7.2-16-16-16z"/></svg>
